2 Export/Icons/Rounded/1 Player/Fullscreen.svg

<svg xmlns="http://www.w3.org/2000/svg" xmlns:xlink="http://www.w3.org/1999/xlink" width="24" height="24" viewBox="0 0 24 24">
  <defs>
    <path id="fullscreen-a" d="M6 14c-.55 0-1 .45-1 1v3c0 .55.45 1 1 1h3c.55 0 1-.45 1-1s-.45-1-1-1H7v-2c0-.55-.45-1-1-1zm0-4c.55 0 1-.45 1-1V7h2c.55 0 1-.45 1-1s-.45-1-1-1H6c-.55 0-1 .45-1 1v3c0 .55.45 1 1 1zm11 7h-2c-.55 0-1 .45-1 1s.45 1 1 1h3c.55 0 1-.45 1-1v-3c0-.55-.45-1-1-1s-1 .45-1 1v2zM14 6c0 .55.45 1 1 1h2v2c0 .55.45 1 1 1s1-.45 1-1V6c0-.55-.45-1-1-1h-3c-.55 0-1 .45-1 1z"/>
  </defs>
  <g fill="none" fill-rule="evenodd">
    <polygon points="0 0 24 0 24 24 0 24"/>
    <mask id="fullscreen-b" fill="#fff">
      <use xlink:href="#fullscreen-a"/>
    </mask>
    <use fill="#000" xlink:href="#fullscreen-a"/>
    <g fill="#000" mask="url(#fullscreen-b)">
      <rect width="24" height="24"/>
    </g>
  </g>
</svg>

<svg xmlns="http://www.w3.org/2000/svg" xmlns:xlink="http://www.w3.org/1999/xlink" width="24" height="24" viewBox="0 0 24 24">
  <defs>
    <path id="fullscreen-a" d="M6,14 C5.45,14 5,14.45 5,15 L5,18 C5,18.55 5.45,19 6,19 L9,19 C9.55,19 10,18.55 10,18 C10,17.45 9.55,17 9,17 L7,17 L7,15 C7,14.45 6.55,14 6,14 Z M6,10 C6.55,10 7,9.55 7,9 L7,7 L9,7 C9.55,7 10,6.55 10,6 C10,5.45 9.55,5 9,5 L6,5 C5.45,5 5,5.45 5,6 L5,9 C5,9.55 5.45,10 6,10 Z M17,17 L15,17 C14.45,17 14,17.45 14,18 C14,18.55 14.45,19 15,19 L18,19 C18.55,19 19,18.55 19,18 L19,15 C19,14.45 18.55,14 18,14 C17.45,14 17,14.45 17,15 L17,17 Z M14,6 C14,6.55 14.45,7 15,7 L17,7 L17,9 C17,9.55 17.45,10 18,10 C18.55,10 19,9.55 19,9 L19,6 C19,5.45 18.55,5 18,5 L15,5 C14.45,5 14,5.45 14,6 Z"/>
  </defs>
  <g fill="none" fill-rule="evenodd">
    <polygon points="0 0 24 0 24 24 0 24"/>
    <mask id="fullscreen-b" fill="#fff">
      <use xlink:href="#fullscreen-a"/>
    </mask>
    <use fill="#000" xlink:href="#fullscreen-a"/>
    <g fill="#000" mask="url(#fullscreen-b)">
      <rect width="24" height="24"/>
    </g>
  </g>
</svg>
